!!!OTL: Die Schlangenkoechin 'Wo bist du denn so lang gewesen?
!!!ARE: Europa, Mitteleuropa, Deutschland (), Brandenburg, Wilsnack,
!!    Klein - Welle
!!!YOR: 4, S. 189
!!    1847 aufgezeichnet
!!!SCT: Q0079
!!!YEM: Copyright 1995, estate of Helmut Schaffrath.
**kern
*ICvox
*Ivox
!! Mixed meters:  4/4; 3/2
*M4/4
*k[f#]
*G:
{4d
=1
4g
4g
4dd
4dd
=2
4b
8dd
8b
2g}
=3
{4.a
8g
4a
4cc
=4
4b
8dd
8b
4g}
{4d
=5
4g
4g
4dd
4dd
=6
8b
8b
4dd
4g}
{4g
=7
4a
4a
4f#}
{4d
=8
4.g
8g
4a
8b
8cc
=9
2dd
4b}
{4dd
=10
4.ee
8dd
4cc
4a
=11
*M3/2
2g
4r}
{4g
4a
8b
8cc
=12
*M4/4
2dd
4b}
{4dd
=13
4.ee
8dd
4cc
4a
=14
2g
4r}
==
!!!AGN: Ballade, Mord; Reigen - Tanz, antiphonal
!! Zweite Zeile und die letzten vier Zeilen = Refrain.
!!!ONB: ESAC (Essen Associative Code) Database: BALLADE
!!!AMT: irregular
!!!AIN: vox
!!!EED: Helmut Schaffrath
!!!EEV: 1.0
*-
